src/assets/svg/icons/fa/nuevos/classic/thin/mountain-sun classic thin.svg

<svg xmlns="http://www.w3.org/2000/svg" viewBox="0 0 640 512"><!--! Font Awesome Pro 6.4.0 by @fontawesome - https://fontawesome.com License - https://fontawesome.com/license (Commercial License) Copyright 2023 Fonticons, Inc. --><path d="M560 144a64 64 0 1 0 0-128 64 64 0 1 0 0 128zM560 0a80 80 0 1 1 0 160A80 80 0 1 1 560 0zM412.7 281.7l48.2-79C465 196.1 472.2 192 480 192s15 4.1 19.1 10.7l132 216.3c5.8 9.6 8.9 20.6 8.9 31.8c0 33.8-27.4 61.1-61.1 61.1H456.1h0H55.9C25 512 0 487 0 456.1c0-10.5 3-20.8 8.6-29.7L225.2 81c6.6-10.6 18.3-17 30.8-17s24.1 6.4 30.8 17l126 200.7zm9.5 15.1l81.2 129.5c5.6 8.9 8.6 19.2 8.6 29.7c0 15.6-6.4 29.8-16.8 39.9h83.6c24.9 0 45.1-20.2 45.1-45.1c0-8.3-2.3-16.4-6.6-23.5L485.4 211c-1.2-1.9-3.2-3-5.4-3s-4.3 1.2-5.4 3l-52.4 85.8zM456.1 496c22 0 39.9-17.9 39.9-39.9c0-7.5-2.1-14.9-6.1-21.2L273.2 89.5C269.5 83.6 263 80 256 80s-13.5 3.6-17.2 9.5L22.1 434.9c-4 6.4-6.1 13.7-6.1 21.2c0 22 17.9 39.9 39.9 39.9H456.1z"/></svg>

<svg xmlns="http://www.w3.org/2000/svg" viewBox="0 0 640 512"><path d="M480 80C480 35.82 515.8 0 560 0C604.2 0 640 35.82 640 80C640 124.2 604.2 160 560 160C515.8 160 480 124.2 480 80zM560 144C595.3 144 624 115.3 624 80C624 44.65 595.3 16 560 16C524.7 16 496 44.65 496 80C496 115.3 524.7 144 560 144zM412.7 281.7L460.9 202.7C464.1 196.1 472.2 192 480 192C487.8 192 495 196.1 499.1 202.7L631.1 419.1C636.9 428.6 640 439.7 640 450.9C640 484.6 612.6 512 578.9 512H55.91C25.03 512 0 486.1 0 456.1C0 445.6 2.964 435.3 8.551 426.4L225.3 81.01C231.9 70.42 243.5 64 256 64C268.5 64 280.1 70.42 286.8 81.01L412.7 281.7zM422.2 296.9L503.4 426.4C509 435.3 512 445.6 512 456.1C512 471.7 505.6 485.9 495.2 496H578.9C603.8 496 624 475.8 624 450.9C624 442.6 621.7 434.5 617.4 427.4L485.4 211C484.3 209.2 482.2 207.1 480 207.1C477.8 207.1 475.7 209.2 474.6 211L422.2 296.9zM496 456.1C496 448.6 493.9 441.2 489.9 434.9L273.2 89.51C269.5 83.59 262.1 80 256 80C249 80 242.5 83.59 238.8 89.51L22.1 434.9C18.12 441.2 16 448.6 16 456.1C16 478.1 33.87 496 55.91 496H456.1C478.1 496 496 478.1 496 456.1H496z"/></svg>
